X:1
T:Stockton (Trotter), 76.76 D
T:Stockton (Trotter), 76.76 D
T:G. Trotter, before 1913
T:Public Domain Courtesy of the Cyber Hymnal™
C:G. Trotter, before 1913
Z:Public Domain
Z:Courtesy of the Cyber Hymnal™
%%score ( 1 2 ) ( 3 4 )
L:1/8
Q:1/4=110
M:4/4
K:F
V:1 treble 
V:2 treble 
V:3 bass 
V:4 bass 
V:1
 [FA]2 | [FA]3 [FA] [GB]2 [GB]2 | [^G=B]4 [Ac]2 [FA]2 | [Fc]3 [FB] [DA]2 [DG]2 | (F4 E2) [EG]2 | %5
 [FA]3 [FA] [FB]2 [FB]2 | [F=B]4 [Fc]2 A2 | [Fc]2 A2 =B3 z B | [Ec]6 [EG]2 | %9
 [Fc]3 [Fc] [Ec]2 [EB]2 | [FA]2 [FA]2 z2 F2 | [^Fd]3 [Fc] [GB]2 [DA]2 | [DB]6 G2 | %13
 [FA]3 [FA] [GB]2 [Ac]2 x | [Bd]2 [Fd]2 z2 [FA]2 | [^Fc]2 [GB]2 [EA]2 [EG]2 | F6 |] %17
V:2
 x2 | x8 | x8 | x8 | C6 x2 | x8 | x6 A2 | x2 (AG) F2 F2 x | x8 | x8 | x6 F2 | x8 | x6 G2 | x9 | %14
 x8 | x8 | F6 |] %17
V:3
 [F,C]2 | [F,C]3 [F,C] [F,F]2 [F,E]2 | [F,D]4 [F,C]2 [F,C]2 | [B,,D]3 [B,,D] [B,,C]2 [B,,B,]2 | %4
 [C,G,]6 [C,C]2 | [F,C]3 [G,C] [G,F]2 [G,E]2 | [^G,D]4 [A,C]2 A,2 | [D,A,]2 (FE) [G,D]2 G,2 x | %8
 [C,G,]6 [B,C]2 | [A,C]3 [A,C] [G,C]2 [G,C]2 | [F,C]2 [F,C]2 z2 [_E,A,]2 | %11
 [D,A,]3 [D,A,] [E,D]2 [^F,C]2 | [G,B,]6 [E,C]2 | C3 z C [D,F]2 [C,_E]2 | %14
 [B,,D]2 [B,,B,]2 z2 [D,A,]2 | [G,,G,A,]2 [G,B,]2 [C,C]2 [C,B,]2 | [F,,F,A,]6 |] %17
V:4
 x2 | x8 | x8 | x8 | x8 | x8 | x6 A,2 | x2 D,2 x G,2 x2 | x8 | x8 | x8 | x8 | x8 | F,2 _E,2 x5 | %14
 x8 | x8 | x6 |] %17

